img/c5.svg

<svg width="118" height="117" viewBox="0 0 118 117" fill="none" xmlns="http://www.w3.org/2000/svg">
<g clip-path="url(#clip0)">
<path d="M59 117C91.3087 117 117.5 90.8087 117.5 58.5C117.5 26.1913 91.3087 0 59 0C26.6913 0 0.5 26.1913 0.5 58.5C0.5 90.8087 26.6913 117 59 117Z" fill="url(#paint0_linear)" fill-opacity="0.4"/>
<path d="M69.1488 46.3215V38.2026C69.1488 30.3688 62.7742 23.9941 54.9406 23.9941H38.7026C30.8688 23.9941 24.4941 30.3688 24.4941 38.2026V50.3811C24.4941 55.283 27.9868 59.3823 32.6131 60.3258V66.6194C32.6131 67.44 33.1067 68.1813 33.8658 68.4946C34.6137 68.8067 35.4919 68.6406 36.0778 68.0545L43.6022 60.5301H54.9402C62.7742 60.5299 69.1488 54.155 69.1488 46.3215ZM38.7026 44.2923C37.5817 44.2923 36.6729 43.3835 36.6729 42.2626C36.6729 41.1415 37.5817 40.2329 38.7026 40.2329C39.8234 40.2329 40.7322 41.1415 40.7322 42.2626C40.7322 43.3835 39.8234 44.2923 38.7026 44.2923ZM46.8215 44.2923C45.7006 44.2923 44.7918 43.3835 44.7918 42.2626C44.7918 41.1415 45.7006 40.2329 46.8215 40.2329C47.9424 40.2329 48.8512 41.1415 48.8512 42.2626C48.8512 43.3835 47.9424 44.2923 46.8215 44.2923ZM54.9404 44.2923C53.8196 44.2923 52.9107 43.3835 52.9107 42.2626C52.9107 41.1415 53.8196 40.2329 54.9404 40.2329C56.0613 40.2329 56.9701 41.1415 56.9701 42.2626C56.9703 43.3835 56.0615 44.2923 54.9404 44.2923ZM91.4762 48.3512H73.0032C72.0544 56.785 65.4039 63.4353 56.9703 64.384V84.8869C56.9703 86.0089 57.8782 86.9166 59 86.9166H76.4273L81.9219 92.4113C82.5072 92.9963 83.3854 93.1638 84.134 92.8512C84.8931 92.5379 85.3867 91.7966 85.3867 90.976V86.9164H91.476C92.598 86.9164 93.5056 86.0085 93.5056 84.8867V50.3808C93.5059 49.2591 92.598 48.3512 91.4762 48.3512ZM75.2381 78.7981C74.1172 78.7981 73.2084 77.8893 73.2084 76.7685C73.2084 75.6471 74.1172 74.7388 75.2381 74.7388C76.359 74.7388 77.2678 75.6474 77.2678 76.7685C77.2678 77.8893 76.359 78.7981 75.2381 78.7981ZM77.4938 68.2188L77.2678 68.6488C77.2678 69.7708 76.3599 70.6785 75.2381 70.6785C74.1161 70.6785 73.2084 69.7706 73.2084 68.6488C73.2084 66.7282 74.3005 65.1185 75.9913 64.4467C76.7644 64.1373 77.2678 63.396 77.2678 62.5596C77.2678 61.4396 76.358 60.5299 75.2381 60.5299C74.1181 60.5299 73.2084 61.4396 73.2084 62.5596C73.2084 63.6816 72.3005 64.5893 71.1787 64.5893C70.0567 64.5893 69.1491 63.6814 69.1491 62.5596C69.1491 59.2018 71.8805 56.4703 75.2383 56.4703C78.5961 56.4703 81.3276 59.2018 81.3276 62.5596C81.3273 65.0671 79.8228 67.2889 77.4938 68.2188Z" fill="url(#paint1_linear)"/>
</g>
<defs>
<linearGradient id="paint0_linear" x1="59" y1="0" x2="68.7828" y2="116.176" gradientUnits="userSpaceOnUse">
<stop stop-color="#FECA52"/>
<stop offset="0.515625" stop-color="#FFCE5F"/>
<stop offset="1" stop-color="#FF644E"/>
</linearGradient>
<linearGradient id="paint1_linear" x1="58.9999" y1="23.9941" x2="59" y2="112" gradientUnits="userSpaceOnUse">
<stop stop-color="#FFCB35"/>
<stop offset="0.34375" stop-color="#FFB73A"/>
<stop offset="0.703125" stop-color="#FF8A45"/>
<stop offset="1" stop-color="#FF0066"/>
</linearGradient>
<clipPath id="clip0">
<rect width="117" height="117" fill="white" transform="translate(0.5)"/>
</clipPath>
</defs>
</svg>

<svg width="118" height="117" viewBox="0 0 118 117" fill="none" xmlns="http://www.w3.org/2000/svg"><g clip-path="url(#a)"><path d="M59 117c32.309 0 58.5-26.191 58.5-58.5S91.309 0 59 0 .5 26.191.5 58.5 26.691 117 59 117z" fill="url(#b)" fill-opacity=".4"/><path d="M69.149 46.322v-8.12c0-7.833-6.375-14.208-14.208-14.208H38.703c-7.834 0-14.209 6.375-14.209 14.209V50.38c0 4.902 3.493 9.001 8.12 9.945v6.293a2.028 2.028 0 0 0 3.464 1.436l7.524-7.525H54.94c7.834 0 14.209-6.375 14.209-14.209zm-30.446-2.03a2.03 2.03 0 1 1 0-4.06 2.03 2.03 0 0 1 0 4.06zm8.118 0a2.03 2.03 0 1 1 0-4.06 2.03 2.03 0 0 1 0 4.06zm8.12 0a2.03 2.03 0 1 1 0-4.06 2.03 2.03 0 0 1 0 4.06zm36.535 4.06H73.003A18.174 18.174 0 0 1 56.97 64.383v20.503c0 1.122.908 2.03 2.03 2.03h17.427l5.495 5.494a2.03 2.03 0 0 0 3.465-1.435v-4.06h6.089c1.122 0 2.03-.907 2.03-2.03V50.382c0-1.122-.908-2.03-2.03-2.03zM75.238 78.797a2.03 2.03 0 1 1 0-4.06 2.03 2.03 0 0 1 0 4.06zm2.256-10.58l-.226.43c0 1.123-.908 2.03-2.03 2.03a2.029 2.029 0 0 1-2.03-2.03c0-1.92 1.093-3.53 2.783-4.201a2.031 2.031 0 0 0-.753-3.917c-1.12 0-2.03.91-2.03 2.03 0 1.122-.907 2.03-2.03 2.03a2.028 2.028 0 0 1-2.029-2.03 6.096 6.096 0 0 1 6.09-6.09 6.096 6.096 0 0 1 6.089 6.09 6.065 6.065 0 0 1-3.834 5.659z" fill="url(#c)"/></g><defs><linearGradient id="b" x1="59" x2="68.783" y2="116.176" gradientUnits="userSpaceOnUse"><stop stop-color="#FECA52"/><stop offset=".516" stop-color="#FFCE5F"/><stop offset="1" stop-color="#FF644E"/></linearGradient><linearGradient id="c" x1="59" y1="23.994" x2="59" y2="112" gradientUnits="userSpaceOnUse"><stop stop-color="#FFCB35"/><stop offset=".344" stop-color="#FFB73A"/><stop offset=".703" stop-color="#FF8A45"/><stop offset="1" stop-color="#F06"/></linearGradient><clipPath id="a"><path fill="#fff" transform="translate(.5)" d="M0 0h117v117H0z"/></clipPath></defs></svg>
